src/images/global/icons/service/coupon-fill.svg

<?xml version="1.0" encoding="UTF-8"?>
<svg width="48px" height="48px" viewBox="0 0 48 48" version="1.1" xmlns="http://www.w3.org/2000/svg" xmlns:xlink="http://www.w3.org/1999/xlink">
    <!-- Generator: Sketch 46.2 (44496) - http://www.bohemiancoding.com/sketch -->
    <title>icon/Service/coupon-fill</title>
    <desc>Created with Sketch.</desc>
    <defs>
        <path d="M8.092878,0.913052493 L8.092878,0.913052493 L8.092878,0.913052493 C8.092878,0.408787525 7.68409048,3.1270148e-15 7.17982551,3.21964677e-15 L7.15051195,0 L0.942366047,0 L0.913052493,0 L0.913052493,0 C0.408787525,9.26319718e-17 -6.17546479e-17,0.408787525 0,0.913052493 L0,0.913052493 L0,23.0869475 L0,23.0869475 L0,23.0869475 C6.17546479e-17,23.5912125 0.408787525,24 0.913052493,24 L0.942366047,24 L21.057634,24 L21.0869475,24 L21.0869475,24 C21.5912125,24 22,23.5912125 22,23.0869475 L22,23.0869475 L22,0.913052493 L22,0.913052493 L22,0.913052493 C22,0.408787525 21.5912125,-4.25698879e-16 21.0869475,-3.33066907e-16 L21.057634,0 L14.6567532,0 L14.6274396,0 L14.6274396,-3.88578059e-15 C14.1231747,-2.89739409e-15 13.7143871,0.408787525 13.7143871,0.913052493 L13.7143871,0.913052493 C13.7143871,2.41738282 12.4559798,3.63687947 10.9041535,3.63687947 C9.35140591,3.63687947 8.092878,2.41749975 8.092878,0.913052493 Z M10.2436353,13.7004508 L14.437984,8.07618098 L16.1900537,8.07618098 L11.3054957,14.4720731 L7.12884475,20.0791958 L5.37677505,20.0791958 L10.2436353,13.7004508 Z M14.54417,18.8960414 C13.7477747,18.8960414 13.1814492,18.1244191 13.1814492,17.1470307 L13.1814492,17.1127364 C13.1814492,16.1867895 13.676984,15.39802 14.5087747,15.39802 C15.30517,15.39802 15.8714956,16.1867895 15.8714956,17.1470307 L15.8714956,17.181325 C15.8714956,18.1072719 15.3759607,18.8960414 14.54417,18.8960414 Z M7.0226587,14.0776884 C5.28828668,14.0776884 4.12024021,12.6887681 4.12024021,11.0426403 L4.12024021,11.008346 C4.12024021,9.32792395 5.30598435,7.93900367 7.05805405,7.93900367 C8.81012375,7.93900367 9.96047254,9.32792395 9.96047254,10.9740517 L9.96047254,11.008346 C9.96047254,12.6716209 8.79242608,14.0776884 7.0226587,14.0776884 Z M7.0226587,9.25933529 C7.81905402,9.25933529 8.38537958,10.0481048 8.38537958,11.008346 L8.38537958,11.0426403 C8.38537958,11.9685872 7.88984472,12.7573567 7.05805405,12.7573567 C6.26165873,12.7573567 5.69533317,11.9857344 5.69533317,11.008346 L5.69533317,10.9740517 C5.69533317,10.0481048 6.19086804,9.25933529 7.0226587,9.25933529 Z M14.5087747,20.2163731 C12.7744027,20.2163731 11.6063562,18.8274528 11.6063562,17.181325 L11.6063562,17.1470307 C11.6063562,15.4666086 12.7921003,14.0776884 14.54417,14.0776884 C16.2785421,14.0776884 17.4465885,15.4666086 17.4465885,17.1127364 L17.4465885,17.1470307 C17.4465885,18.8103056 16.2608444,20.2163731 14.5087747,20.2163731 Z" id="path-1"></path>
    </defs>
    <g id="Symbols" stroke="none" stroke-width="1" fill="none" fill-rule="evenodd">
        <g id="icon/Service/coupon-fill">
            <g id="Icon" transform="translate(13.000000, 12.000000)">
                <mask id="mask-2" fill="white">
                    <use xlink:href="#path-1"></use>
                </mask>
                <use id="Mask" fill="#384048" xlink:href="#path-1"></use>
                <g id="Color/Grayscale/Night-Sky" mask="url(#mask-2)" fill="#111111">
                    <g transform="translate(-13.000000, -12.000000)" id="Swatch">
                        <rect x="0" y="0" width="48" height="48"></rect>
                    </g>
                </g>
            </g>
        </g>
    </g>
</svg>

<?xml version="1.0" encoding="utf-8"?>
<!-- Generator: Adobe Illustrator 21.0.2, SVG Export Plug-In . SVG Version: 6.00 Build 0)  -->
<svg version="1.1" id="icon_x2F_Service_x2F_coupon-fill-Layer_1" xmlns="http://www.w3.org/2000/svg" xmlns:xlink="http://www.w3.org/1999/xlink" x="0px" y="0px"
	 viewBox="0 0 48 48" style="enable-background:new 0 0 48 48;" xml:space="preserve">
<title>icon/Service/coupon-fill</title>
<desc>Created with Sketch.</desc>
<g id="icon_x2F_Service_x2F_coupon-fill-Symbols">
	<g id="icon_x2F_Service_x2F_coupon-fill">
		<g id="icon_x2F_Service_x2F_coupon-fill-Icon" transform="translate(13.000000, 12.000000)">
			<g id="icon_x2F_Service_x2F_coupon-fill-Mask">
				<path id="icon_x2F_Service_x2F_coupon-fill-path-1_1_" style="fill:#384048;" d="M8.1,0.9L8.1,0.9L8.1,0.9C8.1,0.4,7.7,0,7.2,0h0H0.9h0l0,0C0.4,0,0,0.4,0,0.9l0,0
					v22.2l0,0l0,0C0,23.6,0.4,24,0.9,24h0h20.1h0l0,0c0.5,0,0.9-0.4,0.9-0.9l0,0V0.9l0,0l0,0C22,0.4,21.6,0,21.1,0h0h-6.4h0l0,0
					c-0.5,0-0.9,0.4-0.9,0.9l0,0c0,1.5-1.3,2.7-2.8,2.7C9.4,3.6,8.1,2.4,8.1,0.9z M10.2,13.7l4.2-5.6h1.8l-4.9,6.4l-4.2,5.6H5.4
					L10.2,13.7z M14.5,18.9c-0.8,0-1.4-0.8-1.4-1.7v0c0-0.9,0.5-1.7,1.3-1.7c0.8,0,1.4,0.8,1.4,1.7v0C15.9,18.1,15.4,18.9,14.5,18.9
					z M7,14.1c-1.7,0-2.9-1.4-2.9-3v0c0-1.7,1.2-3.1,2.9-3.1S10,9.3,10,11v0C10,12.7,8.8,14.1,7,14.1z M7,9.3c0.8,0,1.4,0.8,1.4,1.7
					v0c0,0.9-0.5,1.7-1.3,1.7c-0.8,0-1.4-0.8-1.4-1.7v0C5.7,10,6.2,9.3,7,9.3z M14.5,20.2c-1.7,0-2.9-1.4-2.9-3v0
					c0-1.7,1.2-3.1,2.9-3.1c1.7,0,2.9,1.4,2.9,3v0C17.4,18.8,16.3,20.2,14.5,20.2z"/>
			</g>
			<defs>
				<filter id="icon_x2F_Service_x2F_coupon-fill-Adobe_OpacityMaskFilter" filterUnits="userSpaceOnUse" x="-13" y="-12" width="48" height="48">
					<feColorMatrix  type="matrix" values="1 0 0 0 0  0 1 0 0 0  0 0 1 0 0  0 0 0 1 0"/>
				</filter>
			</defs>
			<mask maskUnits="userSpaceOnUse" x="-13" y="-12" width="48" height="48" id="icon_x2F_Service_x2F_coupon-fill-mask-2">
				<g style="filter:url(#icon_x2F_Service_x2F_coupon-fill-Adobe_OpacityMaskFilter);">
					<path id="icon_x2F_Service_x2F_coupon-fill-path-1" style="fill:#FFFFFF;" d="M8.1,0.9L8.1,0.9L8.1,0.9C8.1,0.4,7.7,0,7.2,0h0H0.9h0l0,0C0.4,0,0,0.4,0,0.9l0,0
						v22.2l0,0l0,0C0,23.6,0.4,24,0.9,24h0h20.1h0l0,0c0.5,0,0.9-0.4,0.9-0.9l0,0V0.9l0,0l0,0C22,0.4,21.6,0,21.1,0h0h-6.4h0l0,0
						c-0.5,0-0.9,0.4-0.9,0.9l0,0c0,1.5-1.3,2.7-2.8,2.7C9.4,3.6,8.1,2.4,8.1,0.9z M10.2,13.7l4.2-5.6h1.8l-4.9,6.4l-4.2,5.6H5.4
						L10.2,13.7z M14.5,18.9c-0.8,0-1.4-0.8-1.4-1.7v0c0-0.9,0.5-1.7,1.3-1.7c0.8,0,1.4,0.8,1.4,1.7v0
						C15.9,18.1,15.4,18.9,14.5,18.9z M7,14.1c-1.7,0-2.9-1.4-2.9-3v0c0-1.7,1.2-3.1,2.9-3.1S10,9.3,10,11v0
						C10,12.7,8.8,14.1,7,14.1z M7,9.3c0.8,0,1.4,0.8,1.4,1.7v0c0,0.9-0.5,1.7-1.3,1.7c-0.8,0-1.4-0.8-1.4-1.7v0
						C5.7,10,6.2,9.3,7,9.3z M14.5,20.2c-1.7,0-2.9-1.4-2.9-3v0c0-1.7,1.2-3.1,2.9-3.1c1.7,0,2.9,1.4,2.9,3v0
						C17.4,18.8,16.3,20.2,14.5,20.2z"/>
				</g>
			</mask>
			<g id="icon_x2F_Service_x2F_coupon-fill-Color_x2F_Grayscale_x2F_Night-Sky" style="mask:url(#icon_x2F_Service_x2F_coupon-fill-mask-2);">
				<g id="icon_x2F_Service_x2F_coupon-fill-Swatch" transform="translate(-13.000000, -12.000000)">
					<rect style="fill:#111111;" width="48" height="48"/>
				</g>
			</g>
		</g>
	</g>
</g>
</svg>
